X:145
T:Rattle THO3.145, The
O:England;London
M:6/8
L:1/8
Z:vmp. Peter Dunk 2011.from a transcription by Fynn Titford-Mock 2006-9
B:Thompson's Compleat Collection of 200 Favourite Country Dances Vol. III.1765-72
Q:3/8=110
K:G
gdB ecA|dBG AFD|c2 e dBG|dcB A3|gdB ecA|ABG FED|EFG ABc|ADF G3:|
|:D2 F A2 c|BAG AFD|D2 F A2 c|dcB [A3A,3]|cac BgB|ABG AFD|EFG ABc|ADF G3:|

